X: 4563
T: Both Meat And Drink
R: jig
M: 6/8
K: Dmajor
|:A|D2 F A^GA|BAF GEA|DFA dcd|fed cec|
dBd cAc|BGB dcB|c^Bc edc|dAF G2:|
|:A|dcd dcd|AFD DFA|=cBc cBc|edc Ace|
dcd fed|cec dAF|GEA FDA|EFE D2:|

